polaris-icons/icons/new-icons/TimelineAttachmentMajor.svg

<svg width="20" height="20" viewBox="0 0 20 20" fill="none" xmlns="http://www.w3.org/2000/svg">
<path fill-rule="evenodd" clip-rule="evenodd" d="M6.75 4C6.05964 4 5.5 4.55964 5.5 5.25V14.75C5.5 15.4404 6.05964 16 6.75 16H13.25C13.9404 16 14.5 15.4404 14.5 14.75V5.75C14.5 5.33579 14.8358 5 15.25 5C15.6642 5 16 5.33579 16 5.75V14.75C16 16.2688 14.7688 17.5 13.25 17.5H6.75C5.23122 17.5 4 16.2688 4 14.75V5.25C4 3.73122 5.23122 2.5 6.75 2.5H9.75C11.2688 2.5 12.5 3.73122 12.5 5.25V11.5C12.5 12.8807 11.3807 14 10 14C8.61929 14 7.5 12.8807 7.5 11.5V6C7.5 5.58579 7.83579 5.25 8.25 5.25C8.66421 5.25 9 5.58579 9 6V11.5C9 12.0523 9.44772 12.5 10 12.5C10.5523 12.5 11 12.0523 11 11.5V5.25C11 4.55964 10.4404 4 9.75 4H6.75Z" fill="#4A4A4A"/>
</svg>

<svg viewBox="0 0 20 20" xmlns="http://www.w3.org/2000/svg"><path fill-rule="evenodd" d="M6.75 4c-.69 0-1.25.56-1.25 1.25v9.5c0 .69.56 1.25 1.25 1.25h6.5c.69 0 1.25-.56 1.25-1.25v-9a.75.75 0 0 1 1.5 0v9a2.75 2.75 0 0 1-2.75 2.75h-6.5a2.75 2.75 0 0 1-2.75-2.75v-9.5a2.75 2.75 0 0 1 2.75-2.75h3a2.75 2.75 0 0 1 2.75 2.75v6.25a2.5 2.5 0 0 1-5 0v-5.5a.75.75 0 0 1 1.5 0v5.5a1 1 0 1 0 2 0v-6.25c0-.69-.56-1.25-1.25-1.25h-3Z" fill="#5C5F62"/></svg>
